resources/images/ams_rfid_4.svg

<svg width="30" height="30" xmlns="http://www.w3.org/2000/svg" fill="none">
 <defs>
  <clipPath id="clip0_7112_29432">
   <rect id="svg_1" fill="white" height="30" width="30"/>
  </clipPath>
 </defs>
 <g>
  <title>Layer 1</title>
  <g id="svg_2" clip-path="url(#clip0_7112_29432)">
   <path id="svg_3" stroke="black" d="m31.1539,-1.15234l-32.30771,0l0,32.30764l32.30771,0l0,-32.30764z"/>
   <path id="svg_4" fill="#6B6B6B" d="m7.72445,19.8613c-0.96147,-1.439 -1.47465,-3.1307 -1.47465,-4.8613l2.55489,0c0.219,0 0.3396,-0.2544 0.201,-0.4239l-3.5682,-4.3626c-0.1039,-0.127 -0.2981,-0.127 -0.4019,0l-3.5682,4.3626c-0.1387,0.1695 -0.0181,0.4239 0.2009,0.4239l2.33157,0c0,0.5037 0.03459,1.0048 0.10275,1.5c0.22621,1.6434 0.82225,3.2212 1.75109,4.6113c1.20869,1.8089 2.92666,3.2188 4.9366,4.0514c2.01,0.8325 4.2218,1.0504 6.3556,0.6259c2.1337,-0.4244 4.0938,-1.472 5.6321,-3.0104c1.5384,-1.5384 2.5861,-3.4984 3.0105,-5.6322c0.4244,-2.1338 0.2066,-4.3455 -0.626,-6.3555c-0.8325,-2.01001 -2.2424,-3.72797 -4.0514,-4.93667c-1.3901,-0.92883 -2.9678,-1.52487 -4.6112,-1.75109c-0.4952,-0.06815 -0.9963,-0.10274 -1.5,-0.10274l0,0.74993l0,0.75007l0,0.74993c1.7306,0 3.4223,0.51319 4.8612,1.47466c1.439,0.96147 2.5605,2.32801 3.2228,3.92691c0.6622,1.5989 0.8355,3.3582 0.4979,5.0556c-0.3376,1.6973 -1.171,3.2564 -2.3947,4.4801c-1.2237,1.2237 -2.7828,2.0571 -4.4802,2.3947c-1.6973,0.3377 -3.4567,0.1644 -5.0555,-0.4979c-1.5989,-0.6623 -2.96548,-1.7838 -3.92695,-3.2227z" clip-rule="evenodd" fill-rule="evenodd"/>
  </g>
 </g>
</svg>

<svg width="30" height="30" viewBox="0 0 30 30" fill="none" xmlns="http://www.w3.org/2000/svg">
<g clip-path="url(#clip0_10670_19490)">
<mask id="mask0_10670_19490" style="mask-type:luminance" maskUnits="userSpaceOnUse" x="0" y="0" width="30" height="30">
<path d="M30 0H0V30H30V0Z" fill="white"/>
</mask>
<g mask="url(#mask0_10670_19490)">
<path d="M31.1534 -1.15234H-1.1543V31.1553H31.1534V-1.15234Z" stroke="black"/>
<path fill-rule="evenodd" clip-rule="evenodd" d="M7.72445 19.8613C6.76298 18.4223 6.2498 16.7306 6.2498 15H8.80469C9.02369 15 9.14429 14.7456 9.00569 14.5761L5.43749 10.2135C5.33359 10.0865 5.13939 10.0865 5.03559 10.2135L1.46739 14.5761C1.32869 14.7456 1.44929 15 1.66829 15H3.99986C3.99986 15.5037 4.03445 16.0048 4.10261 16.5C4.32882 18.1434 4.92486 19.7212 5.8537 21.1113C7.06239 22.9202 8.78036 24.3301 10.7903 25.1627C12.8003 25.9952 15.0121 26.2131 17.1459 25.7886C19.2796 25.3642 21.2397 24.3166 22.778 22.7782C24.3164 21.2398 25.3641 19.2798 25.7885 17.146C26.2129 15.0122 25.9951 12.8005 25.1625 10.7905C24.33 8.78049 22.9201 7.06253 21.1111 5.85383C19.721 4.925 18.1433 4.32896 16.4999 4.10274C16.0047 4.03459 15.5036 4 14.9999 4V4.74993V5.5V6.24993C16.7305 6.24993 18.4222 6.76312 19.8611 7.72459C21.3001 8.68606 22.4216 10.0526 23.0839 11.6515C23.7461 13.2504 23.9194 15.0097 23.5818 16.7071C23.2442 18.4044 22.4108 19.9635 21.1871 21.1872C19.9634 22.4109 18.4043 23.2443 16.7069 23.5819C15.0096 23.9196 13.2502 23.7463 11.6514 23.084C10.0525 22.4217 8.68592 21.3002 7.72445 19.8613Z" fill="#6B6B6B"/>
</g>
</g>
<defs>
<clipPath id="clip0_10670_19490">
<rect width="30" height="30" fill="white"/>
</clipPath>
</defs>
</svg>
